X:1
T:Title
L:1/8
Q:1/4=150
M:3/4
K:Ab
V:1 treble nm="Church Organ, Staff"
V:1
 A2 A4 | c2 B2 c2 | d2 e4 | c2 A2 z2 | G2 F2 G2 | A2 B4 | c2 B4 | z6 | B2 B4 | B2 B4 | e2 =d4 | %11
w: By~H.~Lo~Bianco *|||||||||||
 c2 G2 z2 | c2 B4 | A2 G4 | F2 E4 | z6 | z2 A2 A2 | A2 A4 | A2 d4- | d2 c2 z2 | c2 c4 | B2 B4 | %22
w: |||||||||||
 F2 B4 | z6 | E2 e4 | e2 e4 | e2 e2 d2 | c2 B2 c2 | d2 c4 | A2 G2 F2 | E2 A2 z2 | z6 | z2 A2 _G2 | %33
w: |||||||||||
 F2 A4 | d2 c4 | B2 A2 z2 | A2 d4 | f2 B2 c2 | d2 e4 | f2 e2 z2 | A2 d2 z2 | d2 d4 | d2 d2 c2 | %43
w: ||||||||||
 B2 c2 z2 | A2 B4 | _G2 A4 | F2 E2 _G2 | F2 E2 z2 | z2 F2 _G2 | A2 B2 c2 | d2 e4 | d2 c2 z2 | %52
w: |||||||||
 A2 d4 | A2 B4 | A2 c4- | c2 d4- | d2 z2 z2 |] %57
w: |||||

